svg/material-icons/checklist_rtl/materialicons/20px.svg

<svg xmlns="http://www.w3.org/2000/svg" width="20" height="20" viewBox="0 0 20 20"><path d="M9 7.5H2V6h7v1.5zm0 5H2V14h7v-1.5zm2.64-7.39-1.06 1.06L13.4 9 18 4.4l-1.06-1.06-3.54 3.54-1.76-1.77zm0 6.5-1.06 1.06 2.83 2.83 4.6-4.6-1.06-1.06-3.54 3.54-1.77-1.77z"/></svg>

<svg xmlns="http://www.w3.org/2000/svg" enable-background="new 0 0 20 20" height="20" viewBox="0 0 20 20" width="20"><rect fill="none" height="20" width="20"/><path d="M9,7.5H2V6h7V7.5z M9,12.5H2V14h7V12.5z M11.64,5.11l-1.06,1.06L13.4,9L18,4.4l-1.06-1.06L13.4,6.88L11.64,5.11z M11.64,11.61l-1.06,1.06l2.83,2.83l4.6-4.6l-1.06-1.06l-3.54,3.54L11.64,11.61z"/></svg>
